X:625
T: Delia O'Brien's (with piano acc.)
C: BB
M: 6/8
L: 1/8
R: jig
Q: 1/8=320
V: 1 program 1 21 %acc
V: 2 volume=70 program 1 00 clef=bass m=D
K: G
[V:1] D |"G"GFG BcB |"G"BAB "Am"AGE | "G"GBd "C"ege | "Em"edB "G"gdB |
[V:2] z|G,,2[GBD]D,2[GBD]|G,,2[GDB]A,,2[AEC]|G,,2[GDB]C,2[CGE]|E,2[EBG]B,,2[GDB]|
%
[V:1] "G"GFG B2 d | "C"c2 A "Em"BGE | "G"DGB dBd | "D7"cAF "G"G2 :|
[V:2] G,,2[GBD]D,2[GBD]|C,2[CGE]E,2[EBG]|G,,2[GBD]D,2[GBD]|[D,3A,3C3F3][G,2D2B2]:|
%
[V:1] d |"Em"edB "D"ABd | "G"gfg "D"afd | "G"g2 b "Am"age | "Em"edB "Am"AGA |
[V:2] z |E,2[EBG]D,2[AFD]|G,,2[GDB]D,2[AFD]|G,,2[GDB]A,,2[AEC]|E,2[EBG]A,,2[AEC]|
%
[V:1] "G"BGG "Am"cAA | "G"d^cd "C"efg | "G"DGB dBd |"D7"cAF "G"G2 :|
[V:2] G,,2[GDB]A,,2[AEC]|G,,2[GDB]C,2[CGE]|G,,2[GBD]D,2[GBD]|[D,3A,3C3F3][G,,2D,2B,2]:|

%%%%%%%%%%%%%%%%%%%%%%%%%%%%%%%%%%%%%%%%%%%

